X:1
T:Vexations
T:Erik Satie
%%score { ( 1 2 ) | 3 } 4
L:1/8
Q:1/4=44
M:13/4
K:C
V:1 treble nm="Piano"
V:2 treble 
V:3 bass 
V:4 bass nm="Piano"
V:1
"^NOTE DE L'AUTEUR""^Pour se jouer 840 fois de suite ce motif, il sera bon de se préparer au préalable, et dans le \nplus grand silence, par des immobilités sérieuses""^Très Lent""^" [A_e]2 [^c=f][^A=e] [_dg]2 [^B^f]2 [_Be][=B=f] [_ea][^B^f] [__B_e]2 [^A=e]2 [=A^d][^G=d] [__B_e][^B^f] [__e_a]2 [^c=g][cg]- [cg] z | %1
"^" [_EA]2 [F^c][=E^A] [G_d]2 [^F^B]2 [=E_B][=F=B] [A_e][^F^B] [_E__B]2 [=E^A]2 [^D=A][=D^G] [_E__B][^F^B] [_A__e]2 [=G^c][=G^c]- [=G^c] z || %2
 z16 z8 z2 |] %3
V:2
 C2 x4 ^D2[I:staff +1] G,[I:staff -1]=D C^D x6[I:staff +1] _G,[I:staff -1]^D _C2 =EE- E z | %1
 x6 ^D2[I:staff +1] G,[I:staff -1]=D C^D x6[I:staff +1] _G,[I:staff -1]^D _C2 =EE- E z || x26 |] %3
V:3
 x2 A,^C _B,2 x4 x2 _G,2 ^C2 =F,=B, x8 | C2 A,^C _B,2 z4 z2 _G,2 ^C2 =F,B, x8 || z16 z8 z2 |] %3
V:4
 z26 | z26 || %2
"^ A ce signe il sera d'usage de présenter le thème de la Basse""^THÈME" C2 A,^C _B,2 ^D2 G,=D =C^D _G,2 ^C2 =F,=B, _G,^D _C2 =EE- E z |] %3

